ubuntu-mono-light/status/24/gpm-mouse-000.svg

<?xml version="1.0" encoding="UTF-8" standalone="no"?>
<!-- Created with Inkscape (http://www.inkscape.org/) -->

<svg
   xmlns:dc="http://purl.org/dc/elements/1.1/"
   xmlns:cc="http://creativecommons.org/ns#"
   xmlns:rdf="http://www.w3.org/1999/02/22-rdf-syntax-ns#"
   xmlns:svg="http://www.w3.org/2000/svg"
   xmlns="http://www.w3.org/2000/svg"
   xmlns:sodipodi="http://sodipodi.sourceforge.net/DTD/sodipodi-0.dtd"
   xmlns:inkscape="http://www.inkscape.org/namespaces/inkscape"
   version="1.0"
   width="24"
   height="24"
   id="svg3215"
   inkscape:version="0.48.0 r9654"
   sodipodi:docname="gpm-mouse-000.svg">
  <sodipodi:namedview
     pagecolor="#ffffff"
     bordercolor="#666666"
     borderopacity="1"
     objecttolerance="10"
     gridtolerance="10"
     guidetolerance="10"
     inkscape:pageopacity="0"
     inkscape:pageshadow="2"
     inkscape:window-width="1280"
     inkscape:window-height="753"
     id="namedview10"
     showgrid="false"
     inkscape:zoom="13.227273"
     inkscape:cx="11"
     inkscape:cy="11.793814"
     inkscape:window-x="0"
     inkscape:window-y="24"
     inkscape:window-maximized="1"
     inkscape:current-layer="svg3215" />
  <metadata
     id="metadata10">
    <rdf:RDF>
      <cc:Work
         rdf:about="">
        <dc:format>image/svg+xml</dc:format>
        <dc:type
           rdf:resource="http://purl.org/dc/dcmitype/StillImage" />
        <dc:title></dc:title>
      </cc:Work>
    </rdf:RDF>
  </metadata>
  <defs
     id="defs3217" />
  <path
     d="m 11.5,5.499999 2,0 c 2.216,0 4,1.338 4,3 L 17.5,17.5 c 0,1.662 -1.784,3 -4,3 l -2,0 c -2.2160001,0 -4,-1.338 -4,-3 l 0,-9.000001 c 0,-1.662 1.7839999,-3 4,-3 z m 1.041885,1e-6 0,4"
     id="rect2406-4"
     style="opacity:0.3;fill:none;stroke:#ffffff;stroke-width:1;stroke-linecap:round;stroke-linejoin:miter;stroke-miterlimit:4;stroke-opacity:1;stroke-dasharray:none;stroke-dashoffset:0;marker:none;visibility:visible;display:inline;overflow:visible;enable-background:accumulate"
     inkscape:connector-curvature="0" />
  <g
     id="g3195"
     style="opacity:0.3;stroke:#df382c;stroke-opacity:1">
    <path
       d="m 12.5,5.3333332 0,3.3333331"
       id="path3193"
       style="fill:none;stroke:#df382c;stroke-width:2;stroke-linecap:round;stroke-linejoin:miter;stroke-miterlimit:4;stroke-opacity:1;stroke-dasharray:none;stroke-dashoffset:0;marker:none;visibility:visible;display:inline;overflow:visible;enable-background:accumulate"
       inkscape:connector-curvature="0" />
    <rect
       width="13.5"
       height="8.5"
       rx="2.3"
       ry="3.3000903"
       x="-18.75"
       y="8.25"
       transform="matrix(0,-1,1,0,0,0)"
       id="rect3236"
       style="fill:none;stroke:#df382c;stroke-width:0.49999994;stroke-linecap:round;stroke-linejoin:miter;stroke-miterlimit:4;stroke-opacity:1;stroke-dasharray:none;stroke-dashoffset:0;marker:none;visibility:visible;display:inline;overflow:visible;enable-background:accumulate" />
  </g>
  <path
     d="m 11.5,4.499999 2,0 c 2.216,0 4,1.338 4,3 L 17.5,16.5 c 0,1.662 -1.784,3 -4,3 l -2,0 c -2.2160001,0 -4,-1.338 -4,-3 l 0,-9.000001 c 0,-1.662 1.7839999,-3 4,-3 z m 1.041885,1e-6 0,4"
     id="rect2406"
     style="fill:none;stroke:#df382c;stroke-width:1;stroke-linecap:round;stroke-linejoin:miter;stroke-miterlimit:4;stroke-opacity:1;stroke-dasharray:none;stroke-dashoffset:0;marker:none;visibility:visible;display:inline;overflow:visible;enable-background:accumulate"
     inkscape:connector-curvature="0" />
</svg>

<?xml version="1.0" encoding="UTF-8" standalone="no"?>
<!-- Created with Inkscape (http://www.inkscape.org/) -->
<svg
   xmlns:dc="http://purl.org/dc/elements/1.1/"
   xmlns:cc="http://creativecommons.org/ns#"
   xmlns:rdf="http://www.w3.org/1999/02/22-rdf-syntax-ns#"
   xmlns:svg="http://www.w3.org/2000/svg"
   xmlns="http://www.w3.org/2000/svg"
   xmlns:sodipodi="http://sodipodi.sourceforge.net/DTD/sodipodi-0.dtd"
   xmlns:inkscape="http://www.inkscape.org/namespaces/inkscape"
   version="1.0"
   width="24"
   height="24"
   id="svg3215"
   sodipodi:version="0.32"
   inkscape:version="0.46"
   sodipodi:docname="gpm-mouse-000.svg"
   inkscape:output_extension="org.inkscape.output.svg.inkscape">
  <metadata
     id="metadata12">
    <rdf:RDF>
      <cc:Work
         rdf:about="">
        <dc:format>image/svg+xml</dc:format>
        <dc:type
           rdf:resource="http://purl.org/dc/dcmitype/StillImage" />
      </cc:Work>
    </rdf:RDF>
  </metadata>
  <sodipodi:namedview
     inkscape:window-height="706"
     inkscape:window-width="640"
     inkscape:pageshadow="2"
     inkscape:pageopacity="0.0"
     guidetolerance="10.0"
     gridtolerance="10.0"
     objecttolerance="10.0"
     borderopacity="1.0"
     bordercolor="#666666"
     pagecolor="#ffffff"
     id="base"
     showgrid="false"
     inkscape:zoom="20.75"
     inkscape:cx="4.5301205"
     inkscape:cy="12"
     inkscape:window-x="399"
     inkscape:window-y="51"
     inkscape:current-layer="svg3215" />
  <defs
     id="defs3217">
    <inkscape:perspective
       sodipodi:type="inkscape:persp3d"
       inkscape:vp_x="0 : 12 : 1"
       inkscape:vp_y="0 : 1000 : 0"
       inkscape:vp_z="24 : 12 : 1"
       inkscape:persp3d-origin="12 : 8 : 1"
       id="perspective14" />
  </defs>
  <g
     style="opacity:0.3"
     id="g3195">
    <path
       style="opacity:1;fill:none;fill-opacity:1;fill-rule:evenodd;stroke:#000000;stroke-width:2;stroke-linecap:round;stroke-linejoin:miter;marker:none;marker-start:none;marker-mid:none;marker-end:none;stroke-miterlimit:4;stroke-dasharray:none;stroke-dashoffset:0;stroke-opacity:1;visibility:visible;display:inline;overflow:visible;enable-background:accumulate"
       id="path3193"
       d="M 12.5,5.3333332 L 12.5,8.6666663" />
    <rect
       style="opacity:1;fill:none;fill-opacity:1;fill-rule:nonzero;stroke:#000000;stroke-width:0.49999994;stroke-linecap:round;stroke-linejoin:miter;marker:none;marker-start:none;marker-mid:none;marker-end:none;stroke-miterlimit:4;stroke-dasharray:none;stroke-dashoffset:0;stroke-opacity:1;visibility:visible;display:inline;overflow:visible;enable-background:accumulate"
       id="rect3236"
       transform="matrix(0,-1,1,0,0,0)"
       y="8.25"
       x="-18.75"
       ry="3.3000903"
       rx="2.3"
       height="8.5"
       width="13.5" />
  </g>
  <rect
     style="opacity:0.6;fill:none;fill-opacity:1;fill-rule:nonzero;stroke:#eae3d0;stroke-width:0.99999994;stroke-linecap:round;stroke-linejoin:miter;marker:none;marker-start:none;marker-mid:none;marker-end:none;stroke-miterlimit:4;stroke-dasharray:none;stroke-dashoffset:0;stroke-opacity:1;visibility:visible;display:inline;overflow:visible;enable-background:accumulate"
     id="rect3178"
     y="3.5"
     x="6.5"
     ry="4"
     rx="5"
     height="17"
     width="12" />
  <path
     id="rect2406"
     style="fill:none;fill-opacity:1;fill-rule:evenodd;stroke:#dc0000;stroke-width:0.99999994000000003;stroke-linecap:round;stroke-linejoin:miter;stroke-miterlimit:4;stroke-dashoffset:0;stroke-opacity:1;marker:none;marker-start:none;marker-mid:none;marker-end:none;visibility:visible;display:inline;overflow:visible;enable-background:accumulate"
     d="M 11.5,4.499999 L 13.5,4.499999 C 15.716,4.499999 17.5,5.837999 17.5,7.499999 L 17.5,16.5 C 17.5,18.162 15.716,19.5 13.5,19.5 L 11.5,19.5 C 9.2839999,19.5 7.5,18.162 7.5,16.5 L 7.5,7.499999 C 7.5,5.837999 9.2839999,4.499999 11.5,4.499999 zM 12.541885,4.5 L 12.541885,8.5" />
</svg>
